!!!OTL: Ritter und Magd.
!!!OTL-incipit: Ich waiss ein schoens Lustgaertelein,
!!!ARE: Europa, Mitteleuropa, Deutschland
!!!YOR: 3, S. 54
!!    1646 Handschrift Kloster Seeon
!!!SCT: Q1055O
!!!TXL: @@DE
!!!YEM: Copyright 1995, estate of Helmut Schaffrath.
**kern	**text
*ICvox	*
!! Mixed meters:  6/4; 4/4
*M6/4	*
*k[b-]	*
*F:	*
!LO:TX:a:t=Werlin, Handſchr. S. 1475	!
{4f	Jch
4f	waiß
4g	ein
=1	=1
4a	ſchöns
4b-	Luſt-
4cc	-gär-
4a	-te-
=2	=2
2f	-lein,
4r}	.
{4ff	da-
4ff	-rein
4ff	thue
=3	=3
*M4/4	*
4ee	ich
4cc	ſpa-
2dd	-ʒie-
=4	=4
*M6/4	*
2cc	-ren,
4r}	.
{4f	wol-
4cc	-rie-
4ff	-chend
=5	=5
*M4/4	*
4dd	da
4cc	die
4dd	Blüemlein
4dd	.
=6	=6
*M6/4	*
2cc	ſeind,
4r}	.
{4a	Hi-
4dd	-mel
4cc	und
=7	=7
*M4/4	*
4b-	Er-
4a	-den
2g	ʒie-
=8	=8
2f;	-ren.
4r}	.
==	==
!!!AGN: ???
!! Melodievergleich zu Q0055C, anderes Lied.
!!!ONB: ESAC (Essen Associative Code) Database: BALLADE
!!!AMT: irregular
!!!AIN: vox
!!!EED: Helmut Schaffrath
!!!EEV: 1.0
!!!source: Deutsche Volkslieder mit ihren Melodien. Herausgegeben vom Deutschen Volksliedarchiv. Dritter Band Balladen. Berlin 1954.
!!!page: 54
!!!ENC: Anna Maria Matuszewska
!!!EEV: 2025/02/18
*-	*-
